actions/22/download-later.svg

<svg id="svg1" version="1.1" viewBox="0 0 22 22" xmlns="http://www.w3.org/2000/svg">
    <defs id="defs3051">
        <style id="current-color-scheme" type="text/css">.ColorScheme-Text {
        color:#232629;
      }</style>
    </defs>
    <path id="path1" class="ColorScheme-Text" d="m11 3c-4.4319982 0-8 3.568-8 8 0 4.092537 3.0443284 7.441581 7 7.931641v-1.009766c-3.3993571-0.483816-6-3.384659-6-6.921875 0-0.242375 0.0113433-0.480906 0.0351562-0.716797 0.357195-3.5383664 3.32922-6.283203 6.9648438-6.283203 3.877999 0 7 3.122 7 7 0 0.340784-0.03151 0.672498-0.07813 1h1.009766c0.040654-0.32811 0.068364-0.660537 0.068364-1 0-4.432-3.568002-8-8-8zm-1 2v7h6v-1h-5v-6zm4.932039 8.400485v4.292969l-2.292969-2.292969-0.707031 0.707031 3.5 3.5 3.5-3.5-0.707031-0.707031-2.292969 2.292969v-4.292969z" fill="currentColor"/>
</svg>

<svg xmlns="http://www.w3.org/2000/svg" viewBox="0 0 22 22">
  <defs id="defs3051">
    <style type="text/css" id="current-color-scheme">
      .ColorScheme-Text {
        color:#eff0f1;
      }
      </style>
  </defs>
 <path 
    style="fill:currentColor;fill-opacity:1;stroke:none" 
    d="M 11 3 C 6.5680018 3 3 6.568 3 11 C 3 15.092537 6.0443284 18.441581 10 18.931641 L 10 17.921875 C 6.6006429 17.438059 4 14.537216 4 11 C 4 10.757625 4.0113433 10.519094 4.0351562 10.283203 C 4.3923512 6.7448366 7.3643762 4 11 4 C 14.877999 4 18 7.122 18 11 C 18 11.340784 17.968487 11.672498 17.921875 12 L 18.931641 12 C 18.97229 11.67189 19 11.339463 19 11 C 19 6.568 15.431998 3 11 3 z M 10 5 L 10 12 L 16 12 L 16 11 L 11 11 L 11 5 L 10 5 z M 16 13 L 16 17.292969 L 13.707031 15 L 13 15.707031 L 16.292969 19 L 16.5 19.207031 L 16.707031 19 L 20 15.707031 L 19.292969 15 L 17 17.292969 L 17 13 L 16 13 z "
    class="ColorScheme-Text"
    />  
</svg>
